images/media-partners/payspace-magazine-140-28.svg

<svg width="141" height="29" viewBox="0 0 141 29" fill="none" xmlns="http://www.w3.org/2000/svg">
<path d="M66.1634 5.54435L67.9818 1.54618V4.72832C67.9818 5.00033 67.9818 5.18291 67.8924 5.27234C67.8364 5.33644 67.766 5.38639 67.687 5.41812C67.608 5.44984 67.5226 5.46246 67.4378 5.45492H67.2552V5.54435H69.2562V5.45492H69.0736C68.891 5.45492 68.701 5.3655 68.701 5.27234C68.6115 5.18291 68.6115 5.00033 68.6115 4.72832V1.63561C68.6115 1.3636 68.6115 1.18102 68.701 1.09159C68.8248 0.97682 68.9867 0.911806 69.1556 0.909005H69.3381V0.819577H67.9744L66.2491 4.54574L64.5239 0.819577H63.1602V0.909005C63.3175 0.88609 63.4779 0.917645 63.6147 0.998433C63.719 1.03601 63.8125 1.09872 63.8868 1.18102C63.924 1.33006 63.9538 1.48283 63.9762 1.63561V4.7246C63.9762 4.99661 63.9762 5.17919 63.8868 5.26862C63.8307 5.33271 63.7603 5.38266 63.6813 5.41439C63.6023 5.44612 63.517 5.45873 63.4322 5.4512H63.2496V5.54062H64.8854V5.4512H64.7028C64.5202 5.4512 64.3302 5.36177 64.3302 5.26862C64.2407 5.17919 64.2407 4.99661 64.2407 4.7246V1.54618L66.0591 5.54435H66.1634ZM78.5231 4.63517C78.6077 4.77606 78.6693 4.92951 78.7057 5.08976C78.7057 5.17919 78.7057 5.27234 78.6163 5.27234C78.5268 5.36177 78.4337 5.36177 78.2437 5.36177V5.4512H80.062V5.36177C79.8932 5.35897 79.7313 5.29395 79.6074 5.17919C79.4238 5.00765 79.2943 4.78618 79.2348 4.54201L77.6139 0.636995H77.5059L75.8887 4.54574C75.7909 4.77251 75.6658 4.98648 75.5161 5.18291C75.4267 5.27234 75.3335 5.27234 75.1435 5.27234V5.36177H76.5967V5.27234C76.4421 5.2613 76.2894 5.23126 76.1421 5.18291C76.0527 5.09349 76.0527 5.09349 76.0527 5.00033C76.0447 4.84375 76.0754 4.68762 76.1421 4.54574L76.5147 3.80051H78.3331L78.5157 4.62026L78.5231 4.63517ZM76.5222 3.63656L77.3419 1.72876L78.1617 3.63656H76.5222ZM89.8842 0.745054C89.8903 0.794184 89.8854 0.844053 89.87 0.891083C89.8545 0.938113 89.8288 0.981136 89.7948 1.01706L89.7053 1.10649C89.6159 1.10649 89.6159 1.10649 89.4333 1.01706C89.2405 0.901714 89.0208 0.838773 88.7962 0.834482H88.3416C87.9303 0.814653 87.5215 0.908783 87.1604 1.10649C86.742 1.3412 86.3965 1.68674 86.1618 2.1051C85.9863 2.47439 85.8935 2.87748 85.8897 3.2863C85.8974 3.84532 86.0944 4.38521 86.4487 4.81775C86.7081 5.1145 87.0302 5.34998 87.3917 5.5072C87.7532 5.66442 88.1451 5.73947 88.539 5.72693C88.8449 5.74191 89.1512 5.71178 89.4482 5.63751L90.268 5.3655V3.72598C90.268 3.45397 90.268 3.27139 90.3574 3.18196C90.4014 3.12501 90.4578 3.07893 90.5225 3.04727C90.5871 3.01562 90.6581 2.99923 90.73 2.99938H90.8195V2.90623H89.0011V2.98075C89.1837 2.98075 89.3737 2.98075 89.3737 3.07018C89.4631 3.07018 89.4631 3.15961 89.5563 3.25276C89.5936 3.40181 89.6234 3.55458 89.6457 3.70735V5.07113C89.3462 5.25662 88.9993 5.35112 88.6471 5.34314C88.3269 5.32485 88.0155 5.23168 87.7379 5.07113C87.4216 4.86834 87.1645 4.58554 86.9927 4.25137C86.8001 3.85556 86.7007 3.42092 86.702 2.98075C86.6841 2.47061 86.8134 1.96609 87.0747 1.52755C87.2114 1.28991 87.4111 1.0946 87.6517 0.963115C87.8924 0.831633 88.1646 0.769072 88.4384 0.782316C88.6362 0.766608 88.8351 0.791565 89.0229 0.855649C89.2106 0.919732 89.3833 1.02159 89.5302 1.15493C89.7533 1.38192 89.9104 1.66527 89.9848 1.97469H90.0742L89.9848 0.521484L89.8954 0.704066L89.8842 0.745054ZM99.7883 4.63517C99.8729 4.77606 99.9345 4.92951 99.9709 5.08976C99.9709 5.17919 99.9709 5.27234 99.8815 5.27234C99.7921 5.36177 99.6989 5.36177 99.5089 5.36177V5.4512H101.353V5.36177C101.184 5.35897 101.023 5.29395 100.899 5.17919C100.749 4.98276 100.624 4.76878 100.526 4.54201L98.8829 0.636995H98.7934L97.1539 4.54574C97.0561 4.77251 96.931 4.98648 96.7813 5.18291C96.6919 5.27234 96.5987 5.27234 96.4087 5.27234V5.36177H97.8619V5.27234C97.7073 5.2613 97.5546 5.23126 97.4073 5.18291C97.3179 5.09349 97.3179 5.09349 97.3179 5.00033C97.3099 4.84375 97.3406 4.68762 97.4073 4.54574L97.7799 3.80051H99.5983L99.7809 4.62026L99.7883 4.63517ZM97.7874 3.63656L98.6071 1.72876L99.4269 3.63656H97.7874ZM107.513 0.819577L107.423 2.00077H107.513C107.602 1.72876 107.602 1.54618 107.695 1.45675L107.967 1.18474C108.057 1.09531 108.239 1.09531 108.511 1.09531H110.058L107.077 5.3655V5.45492H110.892L111.075 4.1843H110.985C110.911 4.49371 110.754 4.77707 110.531 5.00406C110.304 5.13271 110.046 5.19592 109.786 5.18664H107.878L110.967 0.745054L107.513 0.819577ZM118.781 5.3655C118.731 5.37159 118.682 5.36673 118.635 5.35127C118.588 5.33581 118.545 5.31013 118.509 5.27607C118.419 5.27607 118.419 5.18664 118.326 5.09349C118.289 4.94444 118.259 4.79167 118.237 4.63889V1.65796C118.237 1.38595 118.237 1.20337 118.326 1.11394C118.45 0.999177 118.612 0.934163 118.781 0.931362H118.963V0.819577H116.966V0.909005H117.149C117.279 0.902585 117.408 0.93362 117.521 0.998433C117.611 0.998433 117.611 1.08786 117.704 1.18102V4.7246C117.704 4.99661 117.704 5.17919 117.614 5.26862C117.49 5.38338 117.329 5.4484 117.16 5.4512H116.977V5.54062H118.978V5.4512L118.795 5.36177L118.781 5.3655ZM124.508 0.894101H124.78C124.869 0.983528 125.052 0.983529 125.052 1.07668L125.324 1.34869V4.70224C125.324 4.97425 125.324 5.15683 125.234 5.24626C125.11 5.36103 124.949 5.42604 124.78 5.42884H124.597V5.51827H126.233V5.42884H126.05C125.978 5.42899 125.907 5.41261 125.843 5.38095C125.778 5.34929 125.722 5.30321 125.678 5.24626C125.588 5.15683 125.588 4.97425 125.588 4.70224V1.81819L128.677 5.63378H128.767V1.63561C128.767 1.3636 128.767 1.18102 128.856 1.09159C128.911 1.02908 128.98 0.980077 129.056 0.948408C129.133 0.916739 129.217 0.903255 129.3 0.909005H129.482V0.819577H127.846V0.909005H128.029C128.198 0.911806 128.36 0.97682 128.484 1.09159C128.573 1.18102 128.573 1.3636 128.573 1.63561V4.36316L125.667 0.819577H124.418L124.508 0.909005V0.894101ZM138.049 1.07668C138.321 1.07668 138.421 1.07668 138.503 1.16611C138.585 1.25554 138.686 1.25554 138.775 1.34869C138.865 1.44185 138.865 1.6207 138.958 1.89271H139.047L138.958 0.894101H135.321V0.983529H135.504C135.686 0.983529 135.876 0.983529 135.958 1.16611C136.048 1.25554 136.048 1.43812 136.048 1.71013V5.17919C136.048 5.26861 135.958 5.26862 135.865 5.36177C135.829 5.39583 135.786 5.42151 135.739 5.43697C135.692 5.45244 135.642 5.45729 135.593 5.4512H135.41V5.54062H139.047L139.42 4.35943H139.237C139.055 4.63144 138.965 4.90345 138.783 4.9966C138.739 5.05355 138.682 5.09964 138.618 5.1313C138.553 5.16295 138.482 5.17934 138.41 5.17919C138.231 5.22376 138.049 5.25367 137.866 5.26862H136.774L136.685 5.17919V3.18196H137.683C137.841 3.15905 138.001 3.1906 138.138 3.27139C138.186 3.27406 138.23 3.29416 138.264 3.32784C138.298 3.36152 138.318 3.40642 138.321 3.45397C138.369 3.60126 138.399 3.75394 138.41 3.90857H138.499V2.27278H138.41C138.426 2.46887 138.366 2.66347 138.242 2.8168C138.242 2.90623 138.06 2.90623 137.788 2.90623H136.789V1.09159L138.049 1.07668Z" fill="#161616"/>
<path d="M8.72667 6.08883C7.54548 6.08883 6.09228 6.08883 4.36334 6.17826C3.36472 6.26769 1.9078 6.26769 0 6.36084V6.99802H1.72894C2.82071 6.99802 3.35727 7.63519 3.35727 8.81638V25.2637C3.35727 26.0834 3.17842 26.6312 2.82071 26.9032C2.5487 27.1752 1.91152 27.2758 1.00234 27.2758H0.547746V27.913H10.1836V27.4472H9.00241C8.00877 27.4472 7.28216 27.2659 6.8226 26.9032C6.44999 26.5306 6.18543 25.8114 6.18543 24.8128V18.7205C7.16789 18.9077 8.16624 18.9988 9.16636 18.9925C11.5548 19.0037 13.4552 18.4485 14.9978 17.4499C16.8162 16.2687 17.6322 14.5435 17.6322 12.2705C17.6413 11.4848 17.484 10.706 17.1706 9.98548C16.8572 9.2649 16.3948 8.61884 15.8138 8.08978C14.4538 6.81543 12.0914 6.08883 8.72667 6.08883ZM13.6378 15.3595C12.5447 17.3468 10.7276 18.3405 8.18638 18.3405C7.54282 18.3152 6.90354 18.2241 6.27858 18.0684V6.88996C7.05862 6.76579 7.84739 6.70474 8.63725 6.70737C12.4528 6.70737 14.3644 8.52574 14.3644 12.0693C14.4647 13.2146 14.2111 14.363 13.6378 15.3595ZM40.0935 27.2832C39.3483 27.1007 38.8229 26.3741 38.3683 25.2823L31.0986 5.90625H28.1176L28.3896 6.65148L21.9881 23.993C21.7172 24.8053 21.3834 25.5952 20.9895 26.3554C20.6318 27.0833 19.7226 27.4472 18.2619 27.4472V28.0844H26.3589V27.4472H25.8149C23.9071 27.4472 22.9979 26.9926 22.9979 26.1766C23.1992 25.4347 23.4481 24.7066 23.7431 23.9968L25.7142 18.5417H32.9952L35.3576 24.9022C35.5701 25.3596 35.6964 25.8522 35.7302 26.3554C35.7302 26.8994 35.3576 27.2646 34.7316 27.4472H31.9928V28.0844H41.5355V27.4472C41.0437 27.4876 40.5489 27.4255 40.0823 27.2646L40.0935 27.2832ZM26.2694 16.9953L29.2504 8.79775L32.3394 16.9953H26.2694Z" fill="#161616"/>
<path d="M66.2576 17.9925C64.8044 17.0833 63.8952 16.4461 63.53 16.1741C62.5314 15.3543 61.9837 14.4489 61.9837 13.5397C61.9606 13.1707 62.032 12.8018 62.1911 12.468C62.3502 12.1342 62.5917 11.8465 62.8928 11.6319C63.493 11.1803 64.2332 10.9547 64.9832 10.9947C65.9474 10.9652 66.8879 11.296 67.6213 11.9226C68.3858 12.5012 68.9825 13.2728 69.3503 14.1583H69.8049L69.3503 10.7041H68.8957C68.8534 10.7878 68.7883 10.8578 68.7078 10.9059C68.6273 10.9541 68.5348 10.9784 68.4411 10.9761C68.1331 10.9433 67.8287 10.8822 67.5319 10.7935C66.6608 10.4664 65.7344 10.312 64.8044 10.3389C63.9544 10.324 63.113 10.5104 62.3488 10.883C60.8025 11.6282 59.9864 12.7907 59.9864 14.3371C59.9864 15.4289 60.5305 16.5169 61.4396 17.5192C62.3443 18.3277 63.3167 19.057 64.346 19.6991C65.7992 20.6082 66.7084 21.2454 67.0736 21.5174C68.0722 22.4266 68.62 23.3358 68.62 24.245C68.6499 24.7095 68.5577 25.1737 68.3524 25.5915C68.1471 26.0092 67.836 26.3659 67.4499 26.626C66.6915 27.1927 65.7616 27.4821 64.8155 27.4457C63.7227 27.4535 62.6639 27.0658 61.8346 26.354C61.0214 25.635 60.4501 24.6824 60.1988 23.6264H59.625L60.169 27.7252H60.6236C60.6856 27.6393 60.7674 27.5697 60.8622 27.5223C60.9569 27.4749 61.0617 27.4512 61.1676 27.4532C61.2571 27.4532 61.5402 27.5426 62.1662 27.6358C63.078 27.9374 64.0248 28.1202 64.9832 28.1798C66.3511 28.2214 67.6937 27.8058 68.7988 26.9986C69.3507 26.6115 69.7974 26.0929 70.0986 25.4899C70.3998 24.8868 70.546 24.2182 70.524 23.5445C70.5187 22.9287 70.3869 22.3206 70.1369 21.7579C69.887 21.1951 69.5241 20.6897 69.0708 20.2729C68.6982 19.6357 67.707 18.9091 66.2538 17.9999L66.2576 17.9925ZM86.2522 12.1759C85.1604 11.1773 83.2712 10.6296 80.7076 10.6296C79.7984 10.6296 78.7067 10.6296 77.3541 10.719C76.5343 10.719 75.4463 10.8084 73.8999 10.9016V11.4456H75.2749C76.0946 11.4456 76.5455 11.9002 76.5455 12.8988V25.6274C76.5455 26.2646 76.3629 26.7191 76.0909 26.898C75.6703 27.1133 75.1982 27.2075 74.7271 27.17H74.3545V27.714H81.8963V27.1737H80.9871C80.3778 27.2142 79.7721 27.0546 79.2619 26.7191C78.9899 26.4471 78.8073 25.8994 78.8073 25.0834V20.3549C79.5543 20.5105 80.3179 20.5718 81.0802 20.5374C82.8986 20.5374 84.3518 20.1648 85.5516 19.3562C86.2163 18.9278 86.7584 18.3341 87.1248 17.6332C87.4912 16.9324 87.6695 16.1484 87.642 15.3581C87.6586 14.7606 87.5452 14.1666 87.3098 13.6171C87.0743 13.0677 86.7224 12.576 86.2782 12.1759H86.2522ZM84.5269 17.7205C83.7072 19.2668 82.254 19.9934 80.2568 19.9934C79.7692 19.9606 79.284 19.8996 78.8036 19.8108V11.1773C79.4356 11.0917 80.074 11.0618 80.7113 11.0879C83.6923 11.0879 85.1827 12.4517 85.1827 15.2686C85.1231 16.1194 84.9071 16.9518 84.5456 17.7242L84.5269 17.7205ZM103.068 25.4448L97.4306 10.3576H95.0682L95.3403 10.9947L90.4329 24.4462C90.2468 25.088 89.9708 25.7001 89.6131 26.2645C89.2405 26.8086 88.6145 27.0843 87.4333 27.1737V27.7178H93.7045V27.1737H93.2499C91.7967 27.1737 91.0701 26.8011 91.0701 26.1751C91.1965 25.5842 91.3787 25.0065 91.6141 24.4499L93.1605 20.176H98.7944L100.613 25.0834C100.75 25.4342 100.841 25.8011 100.885 26.1751C100.885 26.6297 100.613 26.9204 100.065 26.9949C99.6168 27.088 99.1578 27.1181 98.7013 27.0843H97.956V27.6283H105.408V27.0806C104.954 27.0806 104.589 26.9912 104.227 26.9912C103.773 26.9017 103.407 26.354 103.046 25.4448H103.068ZM93.615 19.0023L95.888 12.6417L98.2504 19.0023H93.615ZM115.972 27.4532C114.953 27.4629 113.944 27.2479 113.017 26.8235C112.09 26.3991 111.269 25.7757 110.61 24.9977C109.064 23.3619 108.337 21.3609 108.337 18.9091C108.292 17.4883 108.605 16.079 109.246 14.8103C110.517 12.2654 112.7 11.0842 115.7 11.0842C116.638 11.0696 117.567 11.255 118.428 11.6282C119.225 11.9622 119.944 12.4593 120.538 13.0875C121.133 13.7157 121.589 14.4612 121.878 15.2761H122.422L122.15 11.3674H121.777C121.653 11.4821 121.492 11.5471 121.323 11.5499C120.881 11.4978 120.452 11.3719 120.052 11.1773C118.607 10.7067 117.1 10.4555 115.581 10.4321C113.841 10.3906 112.121 10.7973 110.584 11.6133C109.135 12.3389 107.94 13.4859 107.156 14.9035C106.314 16.3022 105.874 17.9062 105.885 19.5388C105.852 21.1106 106.261 22.6601 107.066 24.0102C107.899 25.4067 109.134 26.5187 110.61 27.1998C112.083 27.9043 113.703 28.2467 115.335 28.1984C115.942 28.2171 116.55 28.1872 117.153 28.109C118.245 27.9264 119.333 27.7364 120.425 27.4718H121.423C121.606 27.1998 121.796 26.7266 122.061 26.2906C122.493 25.4104 122.858 24.4986 123.152 23.5631H122.597C121.051 26.1975 118.871 27.4718 115.965 27.4718L115.972 27.4532ZM139.875 23.6376C139.708 24.274 139.458 24.8854 139.13 25.456C138.676 26.2757 137.859 26.6372 136.675 26.6372H132.512C132.301 26.6596 132.086 26.6381 131.883 26.574C131.68 26.5098 131.492 26.4045 131.331 26.2645C131.073 25.9263 130.941 25.5085 130.959 25.0834V19.2668H135.505C136.25 19.2668 136.686 19.4494 136.958 19.8108C137.216 20.2889 137.371 20.8156 137.412 21.3572H137.956V16.1741H137.412C137.365 16.675 137.239 17.1654 137.04 17.6273C136.914 17.8425 136.728 18.0164 136.505 18.1282C136.282 18.24 136.032 18.2847 135.784 18.257H130.966V11.6319H136.693C137.785 11.6319 138.418 12.5411 138.694 14.4489H139.149L138.966 10.6333H126.059V11.1773H126.696C127.167 11.1398 127.639 11.234 128.06 11.4493C128.606 11.7226 128.879 12.3585 128.879 13.3571V24.8113C128.877 25.2718 128.815 25.7301 128.697 26.1751C128.425 26.8123 127.698 27.0843 126.334 27.0843H125.589V27.6283H140.039L140.483 23.6302H139.846L139.875 23.6376Z" fill="#161616"/>
<path d="M37.082 6.63327C38.1278 6.23448 39.2346 6.01894 40.3536 5.99609C42.0788 5.99609 45.9876 10.7209 47.8059 10.6314C52.5307 10.3594 50.3509 11.0041 48.8977 12.0846C46.1701 13.1801 37.082 6.63327 37.082 6.63327Z" fill="#161616"/>
<path d="M48.3541 28.5425C48.3541 28.5425 49.9899 16.7269 58.7129 6.82273C58.1688 5.82412 55.8065 6.00298 54.9867 6.45012C46.7183 19.8159 48.3541 28.5425 48.3541 28.5425Z" fill="#161616"/>
<path d="M48.3546 28.5417C47.984 26.8451 47.4985 25.1756 46.9014 23.5449C46.2642 17.5458 52.3527 10.7306 52.3527 10.7306C52.3527 10.7306 45.9922 18.0935 41.9195 12.821C39.9185 10.276 39.9185 10.276 37.1016 6.82186C40.6451 5.45809 43.7341 10.6375 47.8255 10.6375C51.8236 10.6375 54.186 4.82091 57.7333 6.27412C48.8986 17.814 48.3546 28.5417 48.3546 28.5417Z" fill="#161616"/>
<path d="M48.2591 0.000641872C48.7279 -0.00824919 49.1938 0.0753041 49.6303 0.246529C50.0668 0.417754 50.4653 0.673296 50.803 0.998558C51.1407 1.32382 51.4111 1.71243 51.5986 2.14219C51.7861 2.57195 51.8871 3.03443 51.8958 3.50323V3.54422C51.9047 4.01302 51.8211 4.47897 51.6499 4.91547C51.4787 5.35197 51.2231 5.75046 50.8979 6.08818C50.5726 6.4259 50.184 6.69623 49.7543 6.88373C49.3245 7.07123 48.862 7.17223 48.3932 7.18096H48.2628C47.3229 7.17997 46.4218 6.80643 45.7569 6.1422C45.0919 5.47797 44.7175 4.57723 44.7155 3.63738C44.7066 3.16858 44.7901 2.70262 44.9614 2.26612C45.1326 1.82963 45.3881 1.43114 45.7134 1.09342C46.0387 0.755698 46.4273 0.485368 46.857 0.297867C47.2868 0.110365 47.7493 0.00936744 48.2181 0.000641872H48.2591Z" fill="#161616"/>
<path d="M50.7164 2.09179C51.1644 2.63151 51.4022 3.31506 51.3857 4.01632C51.3693 4.71758 51.0998 5.38925 50.627 5.90738C49.6284 6.99915 47.9926 7.08857 47.0834 6.17939C46.1742 5.18078 49.2632 5.43416 50.2655 4.27159C51.2604 3.18356 49.7141 1.18261 50.7164 2.09179Z" fill="#161616"/>
</svg>

<svg width="141" height="29" fill="none" xmlns="http://www.w3.org/2000/svg"><path d="M66.163 5.544l1.819-3.998v3.182c0 .272 0 .455-.09.544a.54.54 0 01-.454.183h-.183v.09h2.001v-.09h-.182c-.183 0-.373-.09-.373-.183-.09-.09-.09-.272-.09-.544V1.636c0-.272 0-.455.09-.544a.685.685 0 01.455-.183h.182v-.09h-1.364L66.25 4.547 64.524.82H63.16v.089a.696.696 0 01.455.09c.104.037.197.1.272.182.037.15.067.302.09.455v3.089c0 .272 0 .454-.09.544a.541.541 0 01-.455.182h-.182v.09h1.635v-.09h-.182c-.183 0-.373-.09-.373-.182-.09-.09-.09-.272-.09-.544V1.546l1.82 3.998h.103zm12.36-.909c.085.141.146.295.183.455 0 .09 0 .182-.09.182-.09.09-.182.09-.372.09v.09h1.818v-.09a.686.686 0 01-.455-.183 1.29 1.29 0 01-.372-.637L77.614.637h-.108l-1.617 3.909c-.098.227-.223.44-.373.637-.09.09-.183.09-.373.09v.089h1.454v-.09a1.89 1.89 0 01-.455-.09c-.09-.089-.09-.089-.09-.182a.954.954 0 01.09-.454l.373-.745h1.818l.183.82.007.014zm-2-.998l.819-1.908.82 1.908h-1.64zM89.883.745a.336.336 0 01-.09.272l-.089.09c-.09 0-.09 0-.272-.09a1.29 1.29 0 00-.637-.183h-.454c-.412-.02-.82.075-1.182.272-.418.235-.763.58-.998 1a2.783 2.783 0 00-.272 1.18 2.47 2.47 0 00.559 1.532 2.663 2.663 0 002.09.909c.306.015.612-.015.91-.09l.819-.271v-1.64c0-.272 0-.455.09-.544a.47.47 0 01.372-.183h.09v-.093H89v.075c.183 0 .373 0 .373.09.09 0 .09.089.182.182.038.149.067.302.09.454v1.364c-.3.186-.647.28-.999.272a2.05 2.05 0 01-.91-.272 2.131 2.131 0 01-.744-.82 2.884 2.884 0 01-.291-1.27 2.657 2.657 0 01.373-1.453 1.49 1.49 0 011.363-.746 1.454 1.454 0 011.092.373c.223.227.38.51.455.82h.09L89.984.52l-.09.183-.01.041zm9.904 3.89c.085.141.147.295.183.455 0 .09 0 .182-.09.182-.089.09-.182.09-.372.09v.09h1.844v-.09a.684.684 0 01-.454-.183 3.03 3.03 0 01-.373-.637L98.883.637h-.09l-1.64 3.909a2.99 2.99 0 01-.372.637c-.09.09-.182.09-.372.09v.089h1.453v-.09a1.89 1.89 0 01-.455-.09c-.09-.089-.09-.089-.09-.182a.954.954 0 01.09-.454l.373-.745h1.818l.183.82.007.014zm-2-.998l.82-1.908.819 1.908h-1.64zM107.512.82l-.09 1.18h.09c.089-.271.089-.454.182-.543l.272-.272c.09-.09.272-.09.544-.09h1.547l-2.981 4.27v.09h3.815l.183-1.27h-.09a1.75 1.75 0 01-.454.82 1.41 1.41 0 01-.745.182h-1.908l3.089-4.442-3.454.075zm11.268 4.546a.334.334 0 01-.272-.09c-.09 0-.09-.09-.183-.183a4.636 4.636 0 01-.089-.454V1.658c0-.272 0-.455.089-.544a.687.687 0 01.455-.183h.182V.82h-1.997v.089h.183a.68.68 0 01.372.09c.09 0 .09.089.183.182v3.544c0 .272 0 .454-.09.544a.684.684 0 01-.454.182h-.183v.09h2.001v-.09l-.183-.09-.014.005zm5.727-4.472h.272c.089.09.272.09.272.183l.272.272v3.353c0 .272 0 .455-.09.544a.684.684 0 01-.454.183h-.183v.09h1.636v-.09h-.183a.465.465 0 01-.372-.183c-.09-.09-.09-.272-.09-.544V1.818l3.089 3.816h.09V1.636c0-.272 0-.455.089-.544a.548.548 0 01.444-.183h.182v-.09h-1.636v.09h.183a.687.687 0 01.455.183c.089.089.089.272.089.544v2.727L125.667.82h-1.249l.09.089V.894zm13.541.183c.272 0 .372 0 .454.09.082.089.183.089.272.182.09.093.09.272.183.544h.089l-.089-.999h-3.637v.09h.183c.182 0 .372 0 .454.182.09.09.09.272.09.544v3.47c0 .089-.09.089-.183.182a.336.336 0 01-.272.09h-.183v.089h3.637l.373-1.182h-.183c-.182.272-.272.544-.454.638a.475.475 0 01-.373.182 3.397 3.397 0 01-.544.09h-1.092l-.089-.09V3.182h.998a.697.697 0 01.455.09.193.193 0 01.183.182c.048.147.078.3.089.455h.089V2.273h-.089a.766.766 0 01-.168.544c0 .09-.182.09-.454.09h-.999V1.091l1.26-.015zM8.727 6.089c-1.182 0-2.635 0-4.364.09-.998.089-2.455.089-4.363.182v.637h1.729c1.092 0 1.628.637 1.628 1.818v16.448c0 .82-.179 1.367-.536 1.64-.272.271-.91.372-1.819.372H.548v.637h9.636v-.466H9.002c-.993 0-1.72-.181-2.18-.544-.372-.372-.637-1.092-.637-2.09V18.72c.983.187 1.981.278 2.981.271 2.389.012 4.29-.544 5.832-1.542 1.818-1.181 2.634-2.906 2.634-5.18a5.567 5.567 0 00-1.818-4.18c-1.36-1.275-3.723-2.001-7.087-2.001zm4.91 9.27c-1.092 1.988-2.91 2.981-5.45 2.981a9.423 9.423 0 01-1.908-.272V6.89c.78-.124 1.568-.185 2.358-.183 3.816 0 5.727 1.819 5.727 5.362a5.615 5.615 0 01-.726 3.29zm26.456 11.924c-.745-.182-1.27-.909-1.725-2l-7.27-19.377h-2.98l.272.745-6.402 17.342a16.44 16.44 0 01-.998 2.362c-.358.728-1.267 1.092-2.728 1.092v.637h8.097v-.637h-.544c-1.908 0-2.817-.454-2.817-1.27.201-.742.45-1.47.745-2.18l1.971-5.455h7.281l2.363 6.36c.212.458.338.95.372 1.453 0 .544-.372.91-.998 1.092h-2.74v.637h9.543v-.637a3.563 3.563 0 01-1.453-.182l.011.018zM26.27 16.995l2.981-8.197 3.09 8.197h-6.07zm39.988.997c-1.454-.909-2.363-1.546-2.728-1.818-.999-.82-1.546-1.725-1.546-2.634a2.175 2.175 0 01.909-1.908 3.19 3.19 0 012.09-.637 3.879 3.879 0 012.638.928 5.403 5.403 0 011.73 2.235h.454l-.455-3.454h-.454a.495.495 0 01-.455.272 5.039 5.039 0 01-.91-.183 7.17 7.17 0 00-2.727-.454 5.387 5.387 0 00-2.455.544c-1.546.745-2.363 1.908-2.363 3.454 0 1.092.545 2.18 1.454 3.182a21.204 21.204 0 002.906 2.18c1.453.91 2.362 1.546 2.728 1.818.998.91 1.546 1.819 1.546 2.728a2.665 2.665 0 01-1.17 2.381 4.136 4.136 0 01-2.635.82 4.527 4.527 0 01-2.98-1.092 5.27 5.27 0 01-1.636-2.728h-.574l.544 4.1h.455a.656.656 0 01.544-.273c.09 0 .372.09.998.183a11.18 11.18 0 002.817.544 6.152 6.152 0 003.816-1.181 4.057 4.057 0 001.725-3.454 4.496 4.496 0 00-1.453-3.272c-.373-.637-1.364-1.364-2.817-2.273l.004-.008zm19.994-5.816c-1.092-.999-2.98-1.546-5.544-1.546-.91 0-2.001 0-3.354.089-.82 0-1.908.09-3.454.183v.544h1.375c.82 0 1.27.454 1.27 1.453v12.728c0 .638-.182 1.092-.454 1.271-.42.215-.893.31-1.364.272h-.373v.544h7.542v-.54h-.909c-.61.04-1.215-.12-1.725-.455-.272-.272-.455-.82-.455-1.636v-4.728c.747.155 1.51.217 2.273.182 1.819 0 3.272-.372 4.472-1.18a4.567 4.567 0 002.09-3.999 4.13 4.13 0 00-1.364-3.182h-.026zm-1.725 5.545c-.82 1.546-2.273 2.272-4.27 2.272a12.675 12.675 0 01-1.453-.182v-8.634c.632-.085 1.27-.115 1.907-.09 2.981 0 4.472 1.365 4.472 4.182a6.936 6.936 0 01-.637 2.455l-.02-.003zm18.541 7.724l-5.637-15.087h-2.363l.272.637-4.907 13.451a7.08 7.08 0 01-.82 1.819c-.373.544-.998.82-2.18.909v.544h6.271v-.544h-.454c-1.453 0-2.18-.373-2.18-.999.127-.59.309-1.169.544-1.725l1.546-4.274h5.634l1.819 4.907c.137.351.228.718.272 1.092 0 .455-.272.745-.82.82a4.92 4.92 0 01-1.364.09h-.745v.543h7.452v-.547c-.454 0-.819-.09-1.181-.09-.454-.09-.82-.637-1.181-1.546h.022zm-9.453-6.443l2.273-6.36 2.362 6.36h-4.635zm22.357 8.451a6.94 6.94 0 01-5.362-2.455c-1.546-1.636-2.273-3.637-2.273-6.089a8.494 8.494 0 01.909-4.099c1.271-2.545 3.454-3.726 6.454-3.726a6.598 6.598 0 012.728.544 6.205 6.205 0 013.45 3.648h.544l-.272-3.909h-.373a.684.684 0 01-.454.183 3.964 3.964 0 01-1.271-.373 15.193 15.193 0 00-4.471-.745c-1.74-.041-3.46.365-4.997 1.181a8.021 8.021 0 00-3.428 3.29 8.872 8.872 0 00-1.271 4.636 8.387 8.387 0 001.181 4.471 8.058 8.058 0 003.544 3.19 10.248 10.248 0 004.725.998c.607.02 1.215-.01 1.818-.089 1.092-.183 2.18-.373 3.272-.637h.998c.183-.272.373-.745.638-1.181.432-.88.797-1.792 1.091-2.728h-.555c-1.546 2.635-3.726 3.909-6.632 3.909l.007-.019zm23.903-3.815a7.433 7.433 0 01-.745 1.818c-.454.82-1.271 1.181-2.455 1.181h-4.163a1.55 1.55 0 01-1.181-.372 1.82 1.82 0 01-.372-1.182v-5.816h4.546c.745 0 1.181.182 1.453.544.258.478.413 1.005.454 1.546h.544v-5.183h-.544a4.81 4.81 0 01-.372 1.453 1.29 1.29 0 01-1.256.63h-4.818v-6.625h5.727c1.092 0 1.725.91 2.001 2.817h.455l-.183-3.816h-12.907v.544h.637a2.55 2.55 0 011.364.272c.546.274.819.91.819 1.908v11.454c-.002.46-.064.92-.182 1.364-.272.637-.999.91-2.363.91h-.745v.543h14.45l.444-3.998h-.637l.029.008zM37.082 6.633a9.74 9.74 0 013.272-.637c1.725 0 5.634 4.725 7.452 4.635 4.725-.272 2.545.373 1.092 1.454-2.728 1.095-11.816-5.452-11.816-5.452zm11.272 21.91s1.636-11.816 10.359-21.72c-.544-.999-2.907-.82-3.726-.373-8.269 13.366-6.633 22.092-6.633 22.092z" fill="#161616"/><path d="M48.355 28.542a38.31 38.31 0 00-1.454-4.997c-.637-6 5.452-12.814 5.452-12.814s-6.36 7.362-10.434 2.09c-2-2.545-2-2.545-4.817-6 3.543-1.363 6.632 3.816 10.724 3.816 3.998 0 6.36-5.816 9.907-4.363-8.834 11.54-9.378 22.268-9.378 22.268z" fill="#161616"/><path d="M48.26 0a3.57 3.57 0 013.636 3.503v.041a3.57 3.57 0 01-3.503 3.637h-.13a3.55 3.55 0 01-3.547-3.544A3.568 3.568 0 0148.218.001h.041z" fill="#161616"/><path d="M50.716 2.092a2.906 2.906 0 01-.089 3.815C49.628 7 47.993 7.09 47.083 6.18c-.909-.998 2.18-.745 3.183-1.907.994-1.088-.552-3.09.45-2.18z" fill="#161616"/></svg>
